app/component-library/components/Icons/Icon/assets/calculator.svg

<svg width="24" height="24" viewBox="0 0 24 24" fill="none" xmlns="http://www.w3.org/2000/svg">
<path d="M16.2812 2H8.28125C5.52125 2 3.28125 4.24 3.28125 7V17C3.28125 19.76 5.52125 22 8.28125 22H16.2812C19.0412 22 21.2812 19.76 21.2812 17V7C21.2812 4.24 19.0412 2 16.2812 2ZM9.14125 18.63C8.95125 18.82 8.70125 18.92 8.44125 18.92C8.17125 18.92 7.92125 18.82 7.73125 18.63C7.54125 18.44 7.43125 18.19 7.43125 17.92C7.43125 17.66 7.54125 17.4 7.73125 17.21C7.82125 17.12 7.93125 17.05 8.05125 17C8.30125 16.9 8.57125 16.9 8.82125 17C8.88125 17.02 8.94125 17.05 8.99125 17.09C9.05125 17.12 9.10125 17.17 9.14125 17.21C9.33125 17.4 9.44125 17.66 9.44125 17.92C9.44125 18.19 9.33125 18.44 9.14125 18.63ZM7.43125 13.92C7.43125 13.79 7.46125 13.66 7.51125 13.54C7.56125 13.41 7.63125 13.31 7.73125 13.21C7.96125 12.98 8.31125 12.87 8.63125 12.94C8.69125 12.95 8.76125 12.97 8.82125 13C8.88125 13.02 8.94125 13.05 8.99125 13.09C9.05125 13.12 9.10125 13.17 9.14125 13.21C9.23125 13.31 9.31125 13.41 9.36125 13.54C9.41125 13.66 9.43125 13.79 9.43125 13.92C9.43125 14.19 9.33125 14.44 9.14125 14.63C8.95125 14.82 8.70125 14.92 8.44125 14.92C8.30125 14.92 8.17125 14.89 8.05125 14.84C7.93125 14.79 7.82125 14.72 7.73125 14.63C7.54125 14.44 7.43125 14.19 7.43125 13.92ZM13.1412 18.63C13.0512 18.72 12.9412 18.79 12.8212 18.84C12.7012 18.89 12.5712 18.92 12.4312 18.92C12.1712 18.92 11.9212 18.82 11.7312 18.63C11.5412 18.44 11.4312 18.19 11.4312 17.92C11.4312 17.85 11.4413 17.79 11.4513 17.72C11.4713 17.66 11.4912 17.6 11.5112 17.54C11.5412 17.48 11.5712 17.42 11.6012 17.36C11.6412 17.31 11.6812 17.26 11.7312 17.21C11.8212 17.12 11.9313 17.05 12.0513 17C12.4213 16.85 12.8612 16.93 13.1412 17.21C13.3312 17.4 13.4312 17.66 13.4312 17.92C13.4312 18.19 13.3312 18.44 13.1412 18.63ZM13.1412 14.63C12.9512 14.82 12.7012 14.92 12.4312 14.92C12.1712 14.92 11.9212 14.82 11.7312 14.63C11.5412 14.44 11.4312 14.19 11.4312 13.92C11.4312 13.66 11.5412 13.4 11.7312 13.21C12.1012 12.84 12.7712 12.84 13.1412 13.21C13.2312 13.31 13.3112 13.41 13.3612 13.54C13.4112 13.66 13.4312 13.79 13.4312 13.92C13.4312 14.19 13.3312 14.44 13.1412 14.63ZM9.28125 10.46C8.25125 10.46 7.40125 9.62 7.40125 8.58V7.58C7.40125 6.55 8.24125 5.7 9.28125 5.7H15.2812C16.3112 5.7 17.1612 6.54 17.1612 7.58V8.58C17.1612 9.61 16.3212 10.46 15.2812 10.46H9.28125ZM17.1413 18.63C16.9513 18.82 16.7012 18.92 16.4312 18.92C16.3012 18.92 16.1713 18.89 16.0513 18.84C15.9313 18.79 15.8212 18.72 15.7312 18.63C15.5412 18.44 15.4412 18.19 15.4412 17.92C15.4412 17.66 15.5412 17.4 15.7312 17.21C16.0012 16.93 16.4513 16.85 16.8213 17C16.9413 17.05 17.0513 17.12 17.1413 17.21C17.3313 17.4 17.4312 17.66 17.4312 17.92C17.4312 18.19 17.3313 18.44 17.1413 18.63ZM17.3612 14.3C17.3112 14.42 17.2413 14.53 17.1413 14.63C16.9513 14.82 16.7012 14.92 16.4312 14.92C16.1712 14.92 15.9212 14.82 15.7312 14.63C15.5412 14.44 15.4312 14.19 15.4312 13.92C15.4312 13.66 15.5412 13.4 15.7312 13.21C16.1012 12.84 16.7713 12.84 17.1413 13.21C17.3313 13.4 17.4412 13.66 17.4412 13.92C17.4412 14.05 17.4112 14.18 17.3612 14.3Z" fill="currentColor"/>
</svg>

<svg xmlns="http://www.w3.org/2000/svg" width="24" height="24" viewBox="0 0 24 24" fill="none"><path d="M16.281 2h-8c-2.76 0-5 2.24-5 5v10c0 2.76 2.24 5 5 5h8c2.76 0 5-2.24 5-5V7c0-2.76-2.24-5-5-5zm-7.14 16.63c-.19.19-.44.29-.7.29a.99.99 0 0 1-.71-.29 1 1 0 0 1-.3-.71c0-.26.11-.52.3-.71.09-.09.2-.16.32-.21.25-.1.52-.1.77 0 .06.02.12.05.17.09.06.03.11.08.15.12.19.19.3.45.3.71a1 1 0 0 1-.3.71zm-1.71-4.71c0-.13.03-.26.08-.38a.998.998 0 0 1 1.31-.54c.06.02.12.05.17.09.06.03.11.08.15.12.09.1.17.2.22.33.05.12.07.25.07.38a.99.99 0 0 1-1.38.92 1 1 0 0 1-.62-.92zm5.71 4.71c-.09.09-.2.16-.32.21a.984.984 0 0 1-1.09-.21 1 1 0 0 1-.3-.71c0-.07.01-.13.02-.2l.06-.18.09-.18c.04-.05.08-.1.13-.15a1.017 1.017 0 0 1 1.41 0c.19.19.29.45.29.71 0 .27-.1.52-.29.71zm0-4a.99.99 0 0 1-.71.29c-.26 0-.51-.1-.7-.29a1 1 0 0 1-.3-.71c0-.26.11-.52.3-.71.37-.37 1.04-.37 1.41 0 .09.1.17.2.22.33.05.12.07.25.07.38 0 .27-.1.52-.29.71zm-3.86-4.17c-1.03 0-1.88-.84-1.88-1.88v-1c0-1.03.84-1.88 1.88-1.88h6c1.03 0 1.88.84 1.88 1.88v1c0 1.03-.84 1.88-1.88 1.88h-6zm7.86 8.17a.99.99 0 0 1-1.09.21.988.988 0 0 1-.32-.21.99.99 0 0 1-.29-.71c0-.26.1-.52.29-.71.27-.28.72-.36 1.09-.21.12.05.23.12.32.21.19.19.29.45.29.71 0 .27-.1.52-.29.71zm.22-4.33a.99.99 0 0 1-.93.62c-.26 0-.51-.1-.7-.29a1 1 0 0 1-.3-.71c0-.26.11-.52.3-.71.37-.37 1.04-.37 1.41 0 .19.19.3.45.3.71 0 .13-.03.26-.08.38z" fill="currentColor"/></svg>
